X:196
T: DES MORGENS ZWISCHEN DREIN UND VIEREN
N: E1338
O: Europa, Mitteleuropa, Deutschland
R: Staende -, Soldaten -, Kriegs - Lied
M: 4/4
L: 1/8
K: F
FA | c2ccA2F2 | d2c2z2
FA | c2c2dcBA | A2G2z2
FA | c3ABABc | A2z4
fd | c3AcBAG | F2z4
FA | c2c2c2FA | c2c2c2
fd | c3AcBAG | F2z4

@@@ Tune index: 4880
